assets/images/spinner.svg

<svg width="23" height="16" viewBox="0 0 23 16" fill="none" xmlns="http://www.w3.org/2000/svg">
<path opacity="0.4" d="M17.3423 11.5841L16.4726 11.0872C16.3718 11.0285 16.2949 10.9362 16.2553 10.8265C16.2157 10.7169 16.2158 10.5968 16.2557 10.4872C15.8111 11.4139 15.1262 12.2045 14.2723 12.7767C13.4184 13.3489 12.4267 13.6817 11.4005 13.7406C10.3744 13.7994 9.35116 13.5821 8.43747 13.1112C7.52379 12.6404 6.75302 11.9332 6.20541 11.0634C5.6578 10.1935 5.35338 9.19276 5.32382 8.16531C5.29427 7.13786 5.54068 6.12127 6.03739 5.22138C6.5341 4.32149 7.26295 3.57119 8.14806 3.0486C9.03318 2.52602 10.0422 2.25025 11.0701 2.25C11.2541 2.25 11.436 2.25906 11.6157 2.27594C11.5926 2.27375 11.5694 2.27125 11.546 2.26938C11.2807 2.24781 11.0701 2.04094 11.0701 1.77469V0.774688C11.07 0.645577 11.1198 0.521428 11.2091 0.428231C11.2985 0.335034 11.4204 0.280013 11.5494 0.274687C11.3901 0.264375 11.2319 0.25 11.0701 0.25C6.78882 0.25 3.32007 3.71875 3.32007 8C3.32007 12.2812 6.78882 15.75 11.0701 15.75C14.1326 15.75 16.7707 13.9703 18.0298 11.3931C17.9007 11.6387 17.5851 11.7228 17.3423 11.5841Z" fill="#50575E"/>
<path d="M11.546 2.26942C11.2807 2.24786 11.0701 2.04098 11.0701 1.77473V0.772856C11.0701 0.488169 11.3098 0.248481 11.5941 0.267544C15.6301 0.536919 18.8201 3.89598 18.8201 8.00004C18.821 9.17236 18.5537 10.3294 18.0388 11.3825C17.9138 11.6379 17.5898 11.7263 17.3432 11.5841L16.4732 11.0872C16.2416 10.955 16.166 10.67 16.2794 10.4288C16.6362 9.66886 16.8208 8.83955 16.8201 8.00004C16.8201 4.98473 14.4991 2.51161 11.546 2.26942Z" fill="#32373C"/>
</svg>

<svg width="23" height="16" fill="none" xmlns="http://www.w3.org/2000/svg"><path opacity=".4" d="M17.342 11.584l-.87-.497a.497.497 0 01-.216-.6 5.75 5.75 0 11-4.64-8.211l-.07-.007a.503.503 0 01-.476-.494v-1a.5.5 0 01.48-.5c-.16-.01-.318-.025-.48-.025A7.749 7.749 0 003.32 8a7.749 7.749 0 007.75 7.75c3.063 0 5.7-1.78 6.96-4.357a.499.499 0 01-.688.191z" fill="#50575E"/><path d="M11.546 2.27a.503.503 0 01-.476-.495V.773c0-.285.24-.525.524-.505A7.75 7.75 0 0118.82 8a7.687 7.687 0 01-.781 3.383.498.498 0 01-.696.201l-.87-.497a.502.502 0 01-.194-.658A5.7 5.7 0 0016.82 8a5.75 5.75 0 00-5.274-5.73z" fill="#32373C"/></svg>
